X:1
T:Rose Of Sharon Waltz
T:Rose Of Avanmore Waltz
C:Unknown
M:3/4
L:1/4
Q:1/4=80
K:D
|A, D|:"D"F3|"A7"E2 G|"D"FE D2-|"D7"D E F|"G"G A B
|"D"A A, F|"A"E3-|"A7"E A G|"D"F3/2 G/2 F/2E/2|"D7"D E F|"G"G A B
|B c d|"D"A F G|"A7"F2 E|"D"D3-|1D A, D:|2D F G
|"Am"A B =c|B2 A|"G"G3-|G3|"E7"B c d|c2 B
|"A"A3-|"A7"A B c|"D"d A3/2 G/2|"D7"F E D|"G"G A B|B c d
|"D"A F G|"A7"F2 E|"D"D3-|D||

